X:1
T:President (First Term)
M:6/8
L:1/8
K:D
R:Colonial jig
A|"D"dAd def|"A"gee e2g|"D"fga agf|f3e2A|!
"D"dAd def|"G"gab "A"a2g|"D"fdf "A"gec|"D"dddd2:|]!
f/g/|"D"aaa agf|"G"gab "A"e2g|"D"fga "Em"Bcd|"A"cde A2 f/g/|!
"D"afa afa|"G"bgb"A"a2g|"D"fdf "A"gec|"D"ddd d2:|]!
